src/assets/duotone/ProgrammingArrows.svg

<svg width="24" height="24" viewBox="0 0 24 24"  xmlns="http://www.w3.org/2000/svg">
<path opacity="0.4" d="M17 3.74969H13.07L14.48 2.57971C14.8 2.30971 14.84 1.83971 14.58 1.51971C14.31 1.19971 13.84 1.15967 13.52 1.41967L10.52 3.91967C10.35 4.05967 10.25 4.26969 10.25 4.49969C10.25 4.72969 10.35 4.92971 10.52 5.07971L13.52 7.57971C13.66 7.69971 13.83 7.74969 14 7.74969C14.21 7.74969 14.43 7.65967 14.58 7.47967C14.85 7.15967 14.8 6.68967 14.48 6.41967L13.07 5.24969H17C17.69 5.24969 18.25 5.80969 18.25 6.49969V15.9997C18.25 16.4097 18.59 16.7497 19 16.7497C19.41 16.7497 19.75 16.4097 19.75 15.9997V6.49969C19.75 4.97969 18.52 3.74969 17 3.74969Z" />
<path d="M19 22C20.6569 22 22 20.6569 22 19C22 17.3431 20.6569 16 19 16C17.3431 16 16 17.3431 16 19C16 20.6569 17.3431 22 19 22Z" />
<path opacity="0.4" d="M13.48 18.92L10.48 16.42C10.16 16.15 9.69001 16.2 9.42001 16.52C9.15001 16.84 9.19999 17.31 9.51999 17.58L10.93 18.75H7C6.31 18.75 5.75 18.19 5.75 17.5V8C5.75 7.59 5.41 7.25 5 7.25C4.59 7.25 4.25 7.59 4.25 8V17.5C4.25 19.02 5.48 20.25 7 20.25H10.93L9.51999 21.42C9.19999 21.69 9.16001 22.16 9.42001 22.48C9.57001 22.66 9.78 22.75 10 22.75C10.17 22.75 10.34 22.69 10.48 22.58L13.48 20.08C13.65 19.94 13.75 19.73 13.75 19.5C13.75 19.27 13.65 19.07 13.48 18.92Z" />
<path d="M5 8C6.65685 8 8 6.65685 8 5C8 3.34315 6.65685 2 5 2C3.34315 2 2 3.34315 2 5C2 6.65685 3.34315 8 5 8Z" />
</svg>

<?xml version="1.0" encoding="UTF-8"?>
<svg width="24" height="24" viewBox="0 0 24 24" xmlns="http://www.w3.org/2000/svg">
 <path d="m17 3.7497h-3.93l1.41-1.17c0.32-0.27 0.36-0.74 0.1-1.06-0.27-0.32-0.74-0.36004-1.06-0.10004l-3 2.5c-0.17 0.14-0.27 0.35002-0.27 0.58002s0.1 0.43002 0.27 0.58002l3 2.5c0.14 0.12 0.31 0.16998 0.48 0.16998 0.21 0 0.43-0.09002 0.58-0.27002 0.27-0.32 0.22-0.79-0.1-1.06l-1.41-1.17h3.93c0.69 0 1.25 0.56 1.25 1.25v9.5c0 0.41 0.34 0.75 0.75 0.75s0.75-0.34 0.75-0.75v-9.5c0-1.52-1.23-2.75-2.75-2.75z" opacity=".4"/>
 <path d="m19 22c1.6569 0 3-1.3431 3-3s-1.3431-3-3-3-3 1.3431-3 3 1.3431 3 3 3z"/>
 <path d="m13.48 18.92-3-2.5c-0.32-0.27-0.78999-0.22-1.06 0.1s-0.22002 0.79 0.09998 1.06l1.41 1.17h-3.93c-0.69 0-1.25-0.56-1.25-1.25v-9.5c0-0.41-0.34-0.75-0.75-0.75s-0.75 0.34-0.75 0.75v9.5c0 1.52 1.23 2.75 2.75 2.75h3.93l-1.41 1.17c-0.32 0.27-0.35998 0.74-0.09998 1.06 0.15 0.18 0.35999 0.27 0.57999 0.27 0.17 0 0.34-0.06 0.48-0.17l3-2.5c0.17-0.14 0.27-0.35 0.27-0.58s-0.1-0.43-0.27-0.58z" opacity=".4"/>
 <path d="m5 8c1.6568 0 3-1.3432 3-3s-1.3432-3-3-3-3 1.3432-3 3 1.3432 3 3 3z"/>
</svg>
